X:8009
T:Hunting the Hare
R:Slipjig
C:Trad. O'Neills 1850
O:Ireland
M:9/8
L:1/8
Q:1/8=200
K:D
G|"D"F2A ABA d2A|"G"Bcd e2d "A7"cBA|"D"F2A ABA d2A|"G"Bcd "A7"edc "D"d2:|
|:g|"D"f2d def "G"g2e|"Em7"a2f "A7"egd cBA|"D"fef def "G"g2e|"D"a2f "A7"edc "D"d2:|

